docs/img/ico-map-active.svg

<?xml version="1.0" encoding="utf-8"?>
<svg width="21px" height="24px" viewbox="0 0 21 24" version="1.1" xmlns:xlink="http://www.w3.org/1999/xlink" xmlns="http://www.w3.org/2000/svg">
  <defs>
    <path d="M0 0L19.5419 0L19.5419 23.1417L0 23.1417L0 0Z" id="path_1" />
    <clipPath id="mask_1">
      <use xlink:href="#path_1" />
    </clipPath>
  </defs>
  <g id="Group-4" transform="translate(0.25 0.25)">
    <g id="Group-3">
      <path d="M0 0L19.5419 0L19.5419 23.1417L0 23.1417L0 0Z" id="Clip-2" fill="none" fill-rule="evenodd" stroke="none" />
      <g clip-path="url(#mask_1)">
        <path d="M9.77028 21.0567C11.0331 19.9306 12.203 18.7645 13.3086 17.5348C14.6238 16.0723 15.8563 14.548 16.8126 12.8165C17.5416 11.4965 17.9523 10.1271 17.6829 8.59501C17.3794 6.86854 16.6835 5.33993 15.4203 4.12217C13.5054 2.27629 11.2121 1.49945 8.55982 1.88317C6.79226 2.13891 5.2889 2.93811 4.04129 4.20099C2.86865 5.38793 2.17572 6.83177 1.88551 8.47184C1.70714 9.47974 1.73354 10.4699 2.10084 11.4408C2.50778 12.5168 3.0834 13.4999 3.73802 14.4371C5.17054 16.488 6.87722 18.3005 8.66465 20.0401C9.01822 20.3842 9.3907 20.7087 9.77028 21.0567M9.41009 0C12.4519 0.04224 14.7674 0.968832 16.6613 2.84755C18.2072 4.38115 19.1315 6.24854 19.459 8.41786C19.7217 10.1583 19.3444 11.7586 18.5532 13.2945C17.4159 15.5024 15.8763 17.4193 14.1795 19.2049C12.971 20.4767 11.666 21.6568 10.3951 22.8685C10.0132 23.2326 9.55544 23.2267 9.16596 22.8879C7.16782 21.1499 5.30187 19.2822 3.6284 17.2264C2.57748 15.9353 1.6195 14.5809 0.88078 13.0842C0.134668 11.5723 -0.177236 9.99293 0.0999162 8.30141C0.444556 6.19766 1.36088 4.39037 2.84408 2.88067C4.15582 1.5455 5.74539 0.664608 7.57688 0.265152C8.29803 0.107904 9.04116 0.051552 9.41009 0" transform="translate(0 -0.00024414062)" id="Fill-1" fill="#FFFFFF" fill-rule="evenodd" stroke="#FFFFFF" stroke-width="0.5" />
      </g>
    </g>
    <path d="M1.78848 4.42605C1.78176 5.8986 2.95565 7.10637 4.40342 7.11626C5.91014 7.12653 7.11101 5.95082 7.12493 4.45188C7.13837 3.01044 5.93424 1.7992 4.47706 1.78816C2.99789 1.77703 1.7952 2.95696 1.78848 4.42605M4.44336 6.95555e-05C6.87552 -0.0135624 8.88192 1.97834 8.89901 4.42365C8.9161 6.87194 6.93831 8.87709 4.49607 8.88746C1.99498 8.89802 0.00201738 6.92676 1.38306e-06 4.44045C-0.00191862 2.00973 1.99546 0.0137016 4.44336 6.95555e-05" transform="translate(5.319336 4.446045)" id="Fill-4" fill="#FFFFFF" fill-rule="evenodd" stroke="#FFFFFF" stroke-width="0.5" />
  </g>
</svg>

<svg width="21" height="24" xmlns:xlink="http://www.w3.org/1999/xlink" xmlns="http://www.w3.org/2000/svg"><defs><clipPath id="b"><use xlink:href="#a"/></clipPath><path d="M0 0h19.542v23.142H0V0z" id="a"/></defs><path d="M.25.25h19.542v23.142H.25V.25z" fill="none"/><g clip-path="url(#b)" transform="translate(.25 .25)"><path d="M9.77 21.056a45.101 45.101 0 003.539-3.521c1.315-1.463 2.547-2.987 3.504-4.719.729-1.32 1.14-2.69.87-4.221-.304-1.727-1-3.255-2.263-4.473-1.915-1.846-4.208-2.623-6.86-2.24-1.768.257-3.271 1.056-4.519 2.319C2.87 5.388 2.176 6.83 1.886 8.47c-.179 1.008-.152 1.999.215 2.97.407 1.076.982 2.059 1.637 2.996 1.433 2.05 3.14 3.863 4.927 5.603.353.344.726.668 1.105 1.016M9.41 0c3.042.042 5.357.969 7.251 2.847 1.546 1.534 2.47 3.401 2.798 5.57.263 1.741-.115 3.341-.906 4.877-1.137 2.208-2.677 4.125-4.373 5.91-1.209 1.272-2.514 2.453-3.785 3.664-.382.364-.84.358-1.229.02-1.998-1.738-3.864-3.606-5.538-5.662-1.05-1.29-2.009-2.645-2.747-4.142C.135 11.572-.177 9.993.1 8.301c.345-2.104 1.26-3.91 2.744-5.42A9.307 9.307 0 017.577.264C8.298.108 9.04.05 9.41 0" fill="#FFF" fill-rule="evenodd" stroke="#FFF" stroke-width=".5"/></g><path d="M7.358 9.122c-.007 1.473 1.167 2.68 2.615 2.69a2.676 2.676 0 002.721-2.664c.014-1.442-1.19-2.653-2.648-2.664a2.656 2.656 0 00-2.688 2.638m2.655-4.426c2.432-.014 4.438 1.978 4.455 4.424a4.434 4.434 0 01-4.403 4.464c-2.5.01-4.494-1.961-4.496-4.448-.002-2.43 1.996-4.426 4.444-4.44" fill="#FFF" fill-rule="evenodd" stroke="#FFF" stroke-width=".5"/></svg>
